X:1
T:He Cares for Me
T:F. Clark Perry, 1918
T:He Cares for Me
T:Public Domain
T:Public Domain
T:Public Domain
C:F. Clark Perry, 1918
Z:Public Domain
%%score ( 1 2 ) ( 3 4 )
L:1/8
M:6/8
K:Eb
V:1 treble 
V:2 treble 
V:3 bass 
V:4 bass 
V:1
 B,"^Solo" | (z [G,B,])[B,EG] (z [EG])[B,EG] | z [FA][EA] [DAB]2 B, | %3
w: 1.~I|* fear * the|* * * no|
w: 2.~He|* is * a|* * * ful|
w: 3.~When|* time * shall|* * * no|
 z [G,B,][B,EG] (z [EG])[B,EG] | z [B,F][B,E] [B,DA]2 A | z [FA][FAc] (z [B,D])[B,DF] | %6
w: * My * doubts|* * * are|* For * ev-|
w: * Who * ne-|* * * my|* His * love|
w: * And * sor-|* * * is|* What * joy|
 z [EG][EGB] (z [B,E])[B,EG] | z [=A,E][A,EG] | z [CEF][EF_Ac] | z [DF][EA] [FAB]2 ||"^Duet" [AB] | %11
w: * day, * a-|* life’s|* I|||
w: * light * that|* the|* And|||
w: * vine, * what|* ture|* When|||
 [Ge]2 [GB] [Bd]2 [Ac] | [FA]3- [FA]2 [FA] | [Bd]2 [FA] [Ac]2 [GB] | [EG]3- [EG]2 ||"^Quartet" E | %16
w: cure and free. My|Sav- * ior|and my Friend, On|whom *|I|
w: sha- dows flee. Tho’|storm- * y|bil- lows roll, They|can- *|not|
w: land shall see! And|with * the|saints pass in Be-|yond *|the|
 [EG]2 E [DA]2 [DF] | [EB]2 E [Ee]2 [EF] | [EG] [EB]2 [EG]2 [DF] | E3- E2 ||"^Refrain" B, | %21
w: de- pend, He chang-|not, what- e’er my|And al- ways cares|for *|He|
w: my soul, For He|knows will soothe my|And al- ways cares|for *||
w: of sin, Saved by|grace, I’ll see the|Of Him who cares|for *||
 (EF)G (z2 D | E2 E [DF]2) B, | (FG)A (z2 E x3 | F2 F [EG]2) [AB] | [Ge]2 [Gd] [Ae]2 [Ac] | %26
w: cares * for *|* * * me,|* * true *|* * * is|* He’ll be my|
w: |||||
w: |||||
 [GB]2 [^Fc] ([GB][EG])(E/F/) | [EG] [EB]2 [EG]2 [DF] | [B,E]3- [B,E]2 |] %29
w: Friend till life * shall *|And al- ways cares|for *|
w: |||
w: |||
V:2
 x | E2 c2 x2 | B3- x3 | E2 c2 x2 | A3- x3 | d2 A2 x2 | c2 G2 x2 | F2 x | =A2 x | B3 x2 || x | x6 | %12
w: |foe *|more,|and fears|o’er,|ery *|long *|way,|walk|se-|||
w: |faith- *|Guide,|ver leaves|side,|the *|breaks *|night,|bids|the|||
w: |be *|more,|row’s night|o’er,|di- *|rap- *|mine,|I|that|||
 x6 | x6 | x5 || E | x2 E x3 | x2 E x3 | x6 | E3- E2 || x | x3 F3- | F3- x3 | x3 G6- | G3- x3 | %25
w: |||can|es|lot,||me. *|||so||He;|
w: |||reach|who|woes,||me. *||||||
w: |||reach|His|face||me. *||||||
 x6 | x5 E | x6 | x5 |] %29
w: |end,|||
w: ||||
w: ||||
V:3
 B,, | E,2 G, C2 G, | B,3- B,2 B,, | E,2 G, C2 G, | A,3- A,2 A, | D2 C A,2 A, | C2 B, G,2 G, | %7
w: ~|~ ~ ~ ~|~ * ~|~ ~ ~ ~|~ * ~|~ ~ ~ ~|~ ~ ~ ~|
 F,2 G, | =A,2 C | B,3- B,2 || z | (E,G,)B, (B,,F,)B, | (B,,F,B, B,,F,)B, | (B,,F,)B, (B,,F,)B, | %14
w: ~ ~|~ ~|~ *||~ * ~ ~ * ~|~ * * * * ~|~ * ~ ~ * ~|
 (E,G,B, E,2) || [E,G,] | [E,B,]2 [G,B,] [F,B,]2 [A,B,] | [G,B,]2 [G,_D] [A,C]2 [=A,C] | %18
w: ~ * * *|~|~ ~ ~ ~|~ ~ ~ ~|
 B, [B,,G,]2 [B,,B,]2 [B,,A,] | [E,G,]3- [E,G,]2 || z | z3 z2 [B,,B,] | %22
w: ~ ~ ~ ~|He *||cares|
 [C,=A,]2 [C,A,] [B,,B,]2 z | z3 z2 [E,B,] x3 | [D,=B,]2 [D,B,] [C,C]2 [D,B,] | %25
w: for me, So|true|is He * *|
 [E,B,]2 [E,B,] [E,C]2 [E,D] | (EB,)[E,=A,] [E,B,]2 [C,A,] | [B,,B,] [B,,G,]2 [B,,B,]2 [B,,A,] | %28
w: |||
 [E,G,]3- [E,G,]2 |] %29
w: |
V:4
 x | x6 | x6 | x6 | x6 | x6 | x6 | x3 | x3 | x5 || x | x6 | x6 | x6 | x5 || x | x6 | x6 | B, x5 | %19
w: ||||||||||||||||||~|
 x5 || x | x6 | x6 | x9 | x6 | x6 | E,2 x4 | x6 | x5 |] %29
w: ||||||||||

